X:748
T:The Munster buttermilk 2
R:Jig
O:Ireland
B:Ceol Rince 1 n21
B:NE Fiddler's n47
B:Irish Traditional Music Session Tunes 3 n2
S:My arrangement from various sources
Z:Transcription, arrangement, chords:Mike Long
M:6/8
L:1/8
K:G
"G"gfg age|d2B BAB|d2B BAB|"D"dBA "G"GBd|\
"G"gfg age|d2B BAB|dBG GAB|"D"ABA "G"G3:|
|:"G"d2e g2a|b2b bag|"D"a2a age|"G"gag gfe|\
d2e g2a|b2b bag|"C"age "G"deg|"D"aba "G"g3:|
